assets/img/braze_icons/power-02.svg

<svg fill="none" height="24" viewBox="0 0 24 24" width="24" xmlns="http://www.w3.org/2000/svg"><path clip-rule="evenodd" d="m12 1c-6.07513 0-11 4.92487-11 11 0 6.0751 4.92487 11 11 11 6.0751 0 11-4.9249 11-11 0-6.07513-4.9249-11-11-11zm1 6c0-.55228-.4477-1-1-1s-1 .44772-1 1v5c0 .5523.4477 1 1 1s1-.4477 1-1zm-4.20051 2.60019c.33175-.44155.24273-1.06843-.19882-1.40017-.44154-.33174-1.06842-.24273-1.40016.19882-.75357 1.00298-1.20051 2.25136-1.20051 3.60116 0 3.3137 2.68629 6 6 6 3.3137 0 6-2.6863 6-6 0-1.3498-.4469-2.59818-1.2005-3.60116-.3318-.44155-.9586-.53056-1.4002-.19882-.4415.33174-.5305.95862-.1988 1.40017.5023.66851.7995 1.49801.7995 2.39981 0 2.2091-1.7909 4-4 4-2.20914 0-4-1.7909-4-4 0-.9018.29723-1.7313.79949-2.39981z" fill="#801ed7" fill-rule="evenodd"/></svg>

<svg width="24" height="24" viewBox="0 0 24 24" fill="none" xmlns="http://www.w3.org/2000/svg">
<path fill-rule="evenodd" clip-rule="evenodd" d="M12 1C5.92487 1 1 5.92487 1 12C1 18.0751 5.92487 23 12 23C18.0751 23 23 18.0751 23 12C23 5.92487 18.0751 1 12 1ZM13 7C13 6.44772 12.5523 6 12 6C11.4477 6 11 6.44772 11 7V12C11 12.5523 11.4477 13 12 13C12.5523 13 13 12.5523 13 12V7ZM8.79949 9.60019C9.13124 9.15864 9.04222 8.53176 8.60067 8.20002C8.15913 7.86828 7.53225 7.95729 7.20051 8.39884C6.44694 9.40182 6 10.6502 6 12C6 15.3137 8.68629 18 12 18C15.3137 18 18 15.3137 18 12C18 10.6502 17.5531 9.40182 16.7995 8.39884C16.4677 7.95729 15.8409 7.86828 15.3993 8.20002C14.9578 8.53176 14.8688 9.15864 15.2005 9.60019C15.7028 10.2687 16 11.0982 16 12C16 14.2091 14.2091 16 12 16C9.79086 16 8 14.2091 8 12C8 11.0982 8.29723 10.2687 8.79949 9.60019Z" fill="#801ED7"/>
</svg>
